X:1
T:Marche Slave
T:Marche Slave
T:Tchaikovsky
C:Tchaikovsky
%%score { 1 | 2 }
L:1/8
Q:1/4=120
M:4/4
K:C
V:1 treble nm="Piano" snm="Pno."
V:2 bass 
V:1
!f! (E4 ^D2 C!>(!B,!>)! | A,6)!<(! (B,C!<)! | E2) (E2 ^D2 CB, | A,6) z2 |!<(! B,2 D2!<)! C2 B,2 | %5
 A,^G,A,B, C2 A,2 | EE ^D2 C2!>(! B,A, | B,8!>)! |[K:bass]!f! (E4 ^D2!>(! CB, | A,6)!>)!!<(! (B,C | %10
 E2)!<)! (E2 ^D2!>(! CB, | A,6)!>)! z2 |!<(! B,2 D2 C2!<)! B,2 | A,^G,A,B, C2 A,2 | %14
[K:treble]!f! !>!EE ^D2 C2 B,A, |!mp! z8 |!p!!<(! [A,C]4!<)!!>(! [B,D]4 | [A,C]8!>)! |] %18
V:2
 z2 [A,,E,]2 z2 [A,,E,]2 | z2 [A,,E,]2 [A,,E,]2 [A,,E,]2 | z2 [A,,E,]2 z2 [A,,E,]2 | %3
 z2 [A,,E,]2 [A,,E,]2 [A,,E,]2 | z2 [A,,E,]2 z2 [A,,E,]2 | z2 [A,,E,]2 z2 [A,,E,]2 | %6
 z2 [A,,E,]2 z2 [A,,E,]2 | z2 [D,E,]2 [C,E,]2 [B,,E,]2 | z2 [A,,E,]2 z2 [A,,E,]2 | %9
 z2 [A,,E,]2 [A,,E,]2 [A,,E,]2 | z2 [A,,E,]2 z2 [A,,E,]2 | z2 [A,,E,]2 [A,,E,]2 [A,,E,]2 | %12
 z2 [A,,E,]2 z2 [A,,E,]2 | z2 [A,,E,]2 z2 [A,,E,]2 | z8 | !>!E,E, ^D,2 C,2 B,,A,, | E,4 E,4 | %17
 [A,,E,]8 |] %18

